X:36
T:Dispute at the Crossroads (Doctor Gilbert's) (r)
B:NFID.067b (JD)
036disp_cr
S:JD
N:If you get tired of the triplets, you can replace |(3BBB| with
|^AB| or |AB| and |(3eee| with |^de| or |de|.
M:C
R:reel
Q:360
K:Em
gf|eBBe BAB^c|d2AF AFDG|eBBA Bdgb|afdf efgf|
eBBe BAB^c|d2AF AFDd|Be (3eee Begb|afdf efgf||
eB (3BBB BAB^c|d2AF AFDg|eB (3BAB Begb|afdf egfg|
eB (3BBB BAB^c|d2AF AFDd|Be (3eee Begb|afdf efgf|
eB (3BBB gB (3BBB|defg afdf|g2bg f2af|gefd edBb|
afdf edB^c|dBAF AFDd|Ge (3eee Begb|1 afdf efg|\
[2 afdf egfg||

%%%

